!!!OTL: Lustiger Kirchhof (3-97), S. 266
!!!id: P1070
**kern
*clefG2
*k[b-]
*F:
{4c
=1
4.a
8a
8a
8a
=2
4b-
4cc
4e
=3
2f}
=4
{8f
8a
=5
4.cc
8cc
4cc
=6
4dd
4g
4cc
=7
2a}
=8
{8f
8a
=9
4cc
4cc
4dd
=10
2b-}
=11
{8g
8a
=12
4b-
4b-
4cc
=13
2a}
=14
{8f
8a
=15
4.a
8g
4a
=16
4b-
4d
4e
=17
2f}
==
*-
!!!minrhy: 8
!!!meters: 3/4 ]  ZZ[5
!!!cut: Lustiger Kirchhof (3-97), S. 266
!!!reg: Lothringen
!!!trd: PINCK, Louis: Verklingende Weisen, Bd3, Metz 1933
!!!rhy1: X_  X_.XXX  X_X_X_  X__
!!!rhy2: XX  X_.XX_  X_X_X_  X__
!!!key: P1070  08  F 3/4 ]  ZZ[5
!!!mod: HEPTATONIK IONISCH]  AMBITUS[9
!!!kad: 13431
!!!akz: 341_563_54_43_341_
!!!fot: 'a__b__c__cs"aw_
!!!for: 'a__b__c__c__b__
!!!fok: '^a_^a_^a_^a_~__
!! PHRAS[AUFTAKTIG]
!!!fkt: Trinklied
!! LOTH VKL
!! PR[10] 2K[3] 2G[24] 3K[0] 3G[3] 4A[14] 4Ü[0] 5A[0] 6K[0] 6G[0]
!! 7K[0] 7G[0] 8A[0] MEHR[0] SI[45] ABS[29] SR[28] SP[17]
!! ST[16] 2k[0] 2g[31] 3k[7] 3g[0] 4d[7] 4ü[0] 5d[0] 6k[0] 6g[0]
!! 7k[0] 7g[0] 8d[0] mehr[0] si[45] dm[0] sr[31] sp[14]
!! 1F[9] 2F[50] 3F[32] 4F[0] LF[0] 2P[3] 3P[6] 4P[0] TRI[0] DF[5] AB[34]
!! TF[0] U3K[0] U3[0] U4[0] U4Ü[0] U5[10] U6K[0] U6[0] U7K[0] U7[0]
!! N1[17] N2K[0] N2[30] N3K[0] N3[20] N4[7] N4Ü[0] N5[13] N6K[0] N6[3]
!!!n7k: 0] N7[0] O1[0] O2K[0] O2[0] O3K[0] O3[0] HÖ[0
